X:1
T:Title
%%score ( 1 2 ) 3
L:1/8
Q:1/4=105
M:6/8
K:A
V:1 treble nm="Grand Piano, Soprano"
V:2 treble 
V:3 bass nm="Choir Pad, Jasper, George F. Root"
V:1
 [CE] [Ec]2 [DB] [CA]2 | [DB][CA][B,G]- [B,G]2- [B,G]/ z/ | [CA] [DB]2 [DG] [DF]2 | %3
w: By~George~Frederick~Root,~1881 * * *|||
 [DG] [DF]2- [DF] [CE]2 | [CE] [C^E]2 [EG] [Ec]2 | [^EB][FB][FA]- [FA]2- [FA]/ z/ | %6
w: |||
 [EG] [^DF]2 [EG] [FA]2 | z B2- B z z | [DE] [Cc]2 [CB] [CA]2 | [DB][CA][B,G]- [B,G]2- [B,G]/ z/ | %10
w: ||||
 [CA] [DB]2 [DG] [DF]2 | [DG] [DF]2- [DF] [CE]2 | [Ec] [^Ec]2 [Ed] [Ec]2 | %13
w: |||
 [^EB][FB][FA]- [FA]2- [FA]/ z/ | [DF] [DE]2 [DF] [DG]2 | [DB] [CA]2- [CA]3- | [CA]3 z3 |] %17
w: ||||
V:2
 x6 | x6 | x6 | x6 | x6 | x6 | x6 | [^DB] =D2- D-[DE-]>E | x6 | x6 | x6 | x6 | x6 | x6 | x6 | x6 | %16
 x6 |] %17
V:3
 [A,,A,] [A,,A,]2 [A,,A,] [A,,A,]2 | [A,,A,]E,E,- E,2- E,/ z/ | [E,A,] [E,G,]2 [E,G,] [E,B,]2 | %3
 [E,B,] [A,,A,]2- [A,,A,]2- [A,,A,]/ z/ | [A,,A,] [C,G,]2 [C,G,] [C,G,]2 | %5
 [C,C][F,C][F,C]- [F,C]2- [F,C]/ z/ | [F,C] [B,,B,]2 [B,,B,] [B,,B,]2 | %7
 [B,,B,] [E,G,]2- [E,G,]2- [E,G,]/ z/ | [E,G,] [A,,A,]2 [A,,A,] [A,,A,]2 | %9
 [A,,A,]E,E,- E,2- E,/ z/ | [E,A,] [E,G,]2 [E,G,] [E,B,]2 | %11
 [E,B,] [A,,A,]2- [A,,A,]2- [A,,A,]/ z/ | [A,,A,] [C,G,]2 [C,G,] [C,G,]2 | %13
 [C,G,][D,F,][D,A,]- [D,A,]2- [D,A,]/ z/ | [D,A,] [E,G,]2 [E,A,] [E,B,]2 | %15
 [E,G,] [A,,A,]2- [A,,A,]3- | [A,,A,]3 z3 |] %17

